!!!OTL: BUKO VON HALBERSTADT
!!!ARE: Europa, Mitteleuropa, Deutschland, Zerbst
!!!SCT: E1817A
!!!YEM: Copyright 1995, estate of Helmut Schaffrath.
**kern
*ICvox
*Ivox
*M2/4
*k[b-]
*F:
=1
{4cc
8a
8dd
=2
8cc
16cc
16b-
8a
8r}
=3
{8cc
8cc
16a
16a
16dd
16dd
=4
8cc
16cc
16b-
8a}
{8c
=5
8f
8f
8g
8g
=6
4a
8g}
{8c
=7
8f
8f
8g
8g
=8
4a
8g}
{8g
=9
8f
8f
8g
8g
=10
8a
8a
8g}
{8b-
=11
8a
16f
16f
8g
16c
16c
=12
8f
8f
8f
8r}
==
!!!AGN: Kinder - Lied, Sage
!!!ONB: ESAC (Essen Associative Code) Database: ERK3
!!!AMT: simple duple
!!!AIN: vox
!!!EED: Helmut Schaffrath
!!!EEV: 1.0
*-
